svgs/sharp-light/lightbulb-cfl-on.svg

<svg xmlns="http://www.w3.org/2000/svg" viewBox="0 0 640 512"><!--! Font Awesome Pro 6.6.0 by @fontawesome - https://fontawesome.com License - https://fontawesome.com/license (Commercial License) Copyright 2024 Fonticons, Inc. --><path d="M35.2 7.7l52 26 14.3 7.2L87.2 69.5 72.8 62.3l-52-26L6.5 29.2 20.8 .5 35.2 7.7zm584 28.6l-52 26-14.3 7.2L538.5 40.8l14.3-7.2 52-26L619.2 .5l14.3 28.6-14.3 7.2zM16 160l64 0 16 0 0 32-16 0-64 0L0 192l0-32 16 0zm544 0l64 0 16 0 0 32-16 0-64 0-16 0 0-32 16 0zM87.2 318.3l-52 26-14.3 7.2L6.5 322.8l14.3-7.2 52-26 14.3-7.2 14.3 28.6-14.3 7.2zm465.7-35.8l14.3 7.2 52 26 14.3 7.2-14.3 28.6-14.3-7.2-52-26-14.3-7.2 14.3-28.6zM320 7.5L320 28l0 59.5 140.1-35 19.9-5L480 68l0 59.5 0 20.5 0 12.5 0 47s0 0 0 0l0 20.5 0 80 0 12.5-12.1 3-99.9 25 0 35.5 16 0 32 0 0 32 0 32 0 32-32 0-48 0 0 16 0 16-32 0 0-16 0-16-48 0-32 0 0-32 0-32 0-32 32 0 16 0 0-42.5 32-8 0 50.5 32 0 0-48 0-12.5 12.1-3 99.9-25 0-47-92.1 23-64 16-.1 0-111.9 28-19.9 5 0-20.5 0-59.5 0-20.5 0-12.5 0-47 0-20.5s0 0 0 0l0-12.5L160 60l0-12.5 12.1-3 128-32 19.9-5zm-35.9 249l163.9-41 0-47-256 64 0 47 92.1-23zm23.8-133L192 152.5l0 47 256-64 0-47-128 32-12.1 3zM288 48.5l-96 24 0 47 96-24 0-47zM384 416l-128 0 0 32 48 0 32 0 48 0 0-32z"/></svg>

<svg xmlns="http://www.w3.org/2000/svg" viewBox="0 0 640 512"><!--! Font Awesome Pro 6.4.2 by @fontawesome - https://fontawesome.com License - https://fontawesome.com/license (Commercial License) Copyright 2023 Fonticons, Inc. --><path d="M35.2 7.7l52 26 14.3 7.2L87.2 69.5 72.8 62.3l-52-26L6.5 29.2 20.8 .5 35.2 7.7zm584 28.6l-52 26-14.3 7.2L538.5 40.8l14.3-7.2 52-26L619.2 .5l14.3 28.6-14.3 7.2zM16 160H80 96v32H80 16 0V160H16zm544 0h64 16v32H624 560 544V160h16zM87.2 318.3l-52 26-14.3 7.2L6.5 322.8l14.3-7.2 52-26 14.3-7.2 14.3 28.6-14.3 7.2zm465.7-35.8l14.3 7.2 52 26 14.3 7.2-14.3 28.6-14.3-7.2-52-26-14.3-7.2 14.3-28.6zM320 7.5V28 87.5l140.1-35 19.9-5V68v59.5V148v12.5 47l0 0V228v80 12.5l-12.1 3-99.9 25V384h16 32v32 32 32H384 336v16 16H304V496 480H256 224V448 416 384h32 16V341.5l32-8V384h32V336 323.5l12.1-3 99.9-25v-47l-92.1 23-64 16-.1 0-111.9 28-19.9 5V300 240.5 220 207.5v-47V140v0V127.5 60 47.5l12.1-3 128-32 19.9-5zm-35.9 249l163.9-41v-47l-256 64v47l92.1-23zm23.8-133L192 152.5v47l256-64v-47l-128 32-12.1 3zM288 48.5l-96 24v47l96-24v-47zM384 416H256v32h48 32 48V416z"/></svg>
